X:1
T:The Cup of Tea -- Reel
R:reel
B:Ryan's Mammoth Collection
Z:Contributed by Ray Davies, ray:davies99.freeserve.co.uk
M:C|
L:1/8
K:D
v.e.A(3AAA g2.f.g|eAAc BGG2|.e.A(3AAA g2.f.g|afge dgfg|\
.e.A(3AAA g2.f.g|eAAc BGG2|.e.A(3AAA g2.f.g|afge d2(cd)||\
:eaag efgf|eaag edcd|eaag efgb|afge d2(cd)|\
eaag efgf|eaag edcd|eaag efgb|afge dgfg:|
